X:1
T:In dolorous complaining - East
T:#
%%score { 1 | 2 } 3 4 { ( 5 6 7 ) | 8 }
L:1/8
Q:1/4=120
M:4/4
K:F
V:1 treble nm="Soprano I" snm="S"
V:2 treble 
V:3 treble nm="Alto" snm="A"
V:4 treble-8 nm="Tenor" snm="T"
V:5 treble nm="Practice"
V:6 treble 
V:7 treble 
V:8 bass 
V:1
 G8 | ^F8- |"^In dolorous complaining" F4 =F4 | G8 | G8 | G4 G4 |"^Michael East\n(1580?-1648)" z8 | %7
w: In|do\-|* lo-|rous|com-|plain- ing,||
 z8 |[M:4/4] G8 | B8- | B4 B4 | A8- | A8 | z4 d4 | d8- | d4 d4 | d8 | d8 | d8 | d8 | z8 | z8 | c8 | %23
w: |in|do\-|* lo-|rous,||in|do\-|* lo-|rous|com-|plain-|ing,|||in|
 d8- | d4 d4 | c4 c4 | c8 | =B4 d4 | _e6 d2 | c2 B2 A4 | G3 A B2 B2 | A2 G4 ^F2 | G4 z2 A2 | %33
w: do\-|* lo-|rous com-|plain-|ing, I|sat with|tears be- dew-|ed, I sat with|tears be- dew-|ed, with|
 B4 G4 | A4 ^F4 | z2 d2 d2 d2 | G3 A B2 GG | ^F3 G A2 F2 | z2 d2 d2 B2 | A2 G4 ^F2 | G2 d2 d2 d2 | %41
w: tears be-|dew- ed,|to see her|deep dis- dain- ing, her|deep dis- dain- ing,|to see her|deep dis- dain-|ing, to see her|
 G3 A B2 GG | ^F2 D2 z2 d2 | B3 c d2 BB | A2 A2 z2 d2 | d2 d2 G2 B2 | A8 |[M:3/2] A4 z2 d4 dd | %48
w: deep dis- dain- ing, dis-|dain- ing, her|deep dis- dain- ing, dis-|dain- ing, to|see her deep dis-|dain-|ing, whom I with|
 c2 B2 (G3 A BABG) |[M:3/2] A2 =f4 ff f4 | d4 x4 |[M:4/4] d8- | d8 | d8 |[M:4/4] z2 d2 d3 d x4 | %55
w: love pur- su\- * * * * *|ed, whom I with love|pur-|su\-||ed,|and though I|
 c2 B2- B2 A2 x4 |[M:4/4] B4 B2 A2 |[M:4/4] G4 ^F4 | z8 |[M:3/4] z6 | f4 e2 x2 |[M:3/4] d4 c2 x2 | %62
w: found no * com-|fort of ob-|tain- ing,|||but my|love still|
[M:3/4] B2 A4 | =B2 d4 x2 |[M:3/4] c2 B4 A2 |[M:4/4] d2- d2 ^c2 z2 | d2 d4 x2 | e2 x4 z2 | %68
w: re- main-|ing, but|my love still|re\- * main-|ing, but|my|
[M:4/4] d4 c2 B2 |[M:4/4] A4 =B2 d4 | c2[Q:1/4=117][Q:1/4=117] B4[Q:1/4=114][Q:1/4=114] A2 | %71
w: love still re-|main- ing, but|my love still|
[M:4/4][Q:1/4=112][Q:1/4=112] G2[Q:1/4=110][Q:1/4=110] (^F2[Q:1/4=107][Q:1/4=107] G4 x4 | %72
w: re- main\- *|
[Q:1/4=104][Q:1/4=104] ^F2)[Q:1/4=104] !fermata!G8 | x8 |] %74
w: * ing.||
V:2
 z8 | z8 | z8 | z8 | z8 | z8 | d8 | _e8- |[M:4/4] e4 _e4 | d8 | d8 | d4 d4 | z4 A4 | B8- | B4 B4 | %15
w: ||||||In|do\-|* lo-|rous|com-|plain- ing,|In|do\-|* lo-|
 A8- | A8 | z8 | G8 | ^F8- | F4 ^F4 | G8 | G8 | ^F4 D4 | z4 d4 | _e8- | e4 _e4 | d4 d4 | c4 G4 | %29
w: rous,|||In|do-|* lo-|rous|com-|plain- ing,|In|do\-|* lo-|rous com-|plain- ing,|
 A2 Bc d2 d2 | g6 f2 | _e2 d2 c4 | B2 G2 (d4- | d2 cB c4) | d2 d2 d2 d2 | D3 E ^F2 Dd | %36
w: I sat with tears, I|sat with|tears be- dew-|ed, be- dew\-||ed, to see her|deep dis- dain- ing, her|
 B3 c d2 BB | A2 A2 z2 d2 | d2 d2 G3 G | A2 BG A4 | =B4 z2 d2 | d2 d2 G2 B2 | A2 ^FG A2 F2 | %43
w: deep dis- dain- ing, dis-|dain- ing, to|see her deep dis-|dain- ing, dis- dain-|ing, to|see her deep dis-|dain- ing, dis- dain- ing,|
 z2 G2 G2 G2 | D3 E ^F2 Dd | B3 c d4 | ^c2 d4 c2 |[M:3/2] d4 z2 f4 ff | f2 d2 g8 | %49
w: to see her|deep dis dain- ing, her|deep dis- dain-|ing, dis- dain-|ing, whom I with|love pur- su-|
[M:3/2] ^f2 d4 dd x4 | c4 B4 |[M:4/4] (AG^FG ABcB | A2 G2 A4) | =B8 |[M:4/4] z2 f2 f3 f f2 d2 | %55
w: ed, whom I with|love pur-|su\- * * * * * * *||ed,|and though I found no|
 c4 d4 d2 d2 |[M:4/4] d4 d4 |[M:4/4] z2 d2 c2 A2 | x6 x2 |[M:3/4] B4 A2 | d4 c2 x2 | %61
w: com- fort of ob-|tain- ing,|yet left I||weep- ing,|but my|
[M:3/4] B4 A2 G2- |[M:3/4] G2 ^F2 G2 | f4 e2 x2 |[M:3/4]"^s" d4 c2 B2 |[M:4/4] A4 A2 z2 | %66
w: love still re\-|* main- ing,|but my|love still re-|main- ing,|
 f4 c2 x2 | x6 z2 |[M:4/4] B4 A2 G2- |[M:4/4] G2 ^F2 G2 x4 | f4 e2 x2 |[M:4/4] d4 c2 B2 x4 | %72
w: but my||love still re\-|* main- ing,|but my|love still re-|
 (A2 G2 A4) x2 | !fermata!=B8 |] %74
w: main\- * *|ing.|
V:3
 z8 | z8 | D8 | _E8- | E4 _E4 | D8 | G8 | G4 G4 |[M:4/4] z8 | z8 | G8 | ^F8- | F4 ^F4 | G8 | D8 | %15
w: ||In|do\-|* lo-|rous|com-|plain- ing,|||in|do\-|* lo-|rous|com-|
 D4 D4 | z4 A4 | B8- | B4 B4 | A8- | A8 | z8 | z8 | z2 A4 ^F2- | F2 D2 G4- | G4 G4 | G8 | G4 G4 | %28
w: plain- ing,|in|do\-|* lo-|rous,||||in do\-|* lo- rous|* com-|plain-|ing, I|
 c6 B2 | A2 G4 ^F2 | G4 z4 | z4 z2 A2 | B4 A4 | G8 | ^F2 A2 A2 A2 | ^F3 G A2 F2 | z2 G2 G2 G2 | %37
w: sat with|tears be- dew-|ed,|with|tears be-|dew-|ed, to see her|deep dis- dain- ing,|to see her|
 D3 E ^F2 DD | B,3 C D4 | D4 z2 D2 | D2 D2 G,3 A, | B,2 G,2 z4 | z2 d2 d2 d2 | G3 A B2 GG | %44
w: deep dis- dain- ing, her|deep dis- dain-|ing, to|see her deep dis-|dain- ing,|to see her|deep dis- dain- ing, her|
 ^F3 G A2 F2 | z2 D2 D2 G2 | G2 F2 E4 |[M:3/2] ^F4 z2 B4 BB | F2 G2 _E8 |[M:4/4] D2 D4 BB x4 | %50
w: deep dis- dain- ing,|to see her|deep dis- dain-|ing, whom I with|love pur- su-|ed, whom I with|
 A4 G4 |[M:4/4] (^FEDE FGAG | ^F2 G4 F2) | G8 |[M:3/2] z2 F2 F3 F F2 F2 | F4 F2 G4 A2 | %56
w: love pur-|su\- * * * * * * *||ed,|and though I found no|com- fort of ob-|
[M:4/4] B4 A4 | z2 D2 E2 ^F2 |[M:3/4] G4 D2 x2 | A4 A2 |[M:4/4] F4 F2 D2 |[M:3/4] D4 D2 x2 | %62
w: tain- ing,|yet left I|weep- ing,|but my|love still re|main- ing,|
 z2 A2 A2 |[M:4/4]"^*v" F4 A2 G2 |[M:3/4] E4 ^F2 x2 | A4 A2 z2 |[M:4/4] F4 F2 D2 |[M:3/4] D4 D2 | %68
w: but my|love still re-|main- ing,|but my|love still re-|main- ing,|
 z2 A2 A2 x2 |[M:4/4] F4 F2 D2 x2 | D8 | !fermata!D8 x4 | x10 | x8 |] %74
w: but my|love still re-|main-|ing.|||
V:4
 z8 | z8 | z8 | z8 | c8 | =B8- | B4 !courtesy!=B4 | c8 |[M:4/4][K:treble-8] c8 | G8- | G4 G4 | z8 | %12
w: ||||In|do\-|* lo-|rous|com-|plain-|* ing,||
 z8 | z8 | G8 | ^F8- | F4 ^F4 | G8 | G8 | D4 D4 | z4 d4 | _e8- | e4 _e4 | d8- | d4 =B4 | c8- | c8 | %27
w: ||In|do\-|* lo-|rous|com-|plain- ing,|In|do\-|* lo-|rous|* com-|plain\-||
 G8 | z8 | z4 d4 | _e6 d2 | c2 B2 A4 | G4 F4 | _E8 | D8 | z8 | z8 | z2 d2 d2 d2 | G3 A B2 GG | %39
w: ing,||I|sat with|tears be- dew-|ed, be-|dew-|ed,|||to see her|deep dis dain- ing, her|
 ^F2 G2 D4 | G8 | z2 G2 G2 G2 | D3 E ^F2 D2 | z8 | z2 d2 d2 d2 | G3 A B2 GG | A8 | %47
w: deep dis- dain-|ing,|to see her|deep dis- dain- ing,||to see her|deep dis- dain- ing, dis-|dain-|
[M:3/2][K:treble-8] D4 z8 | z12 |[M:4/4] z2 B4 BB x4 | F2 F2 GABc |[M:4/4][K:treble-8] d4 d2 D2 | %52
w: ing,||whom I with|love pur- su\- * * *|* ed, pur-|
 D8 | G8 |[M:3/2] z2 B2 B3 B A2 B2 | F4 B2 G4 ^F2 |[M:4/4] G4 d4 | z8 |[M:3/4][K:treble-8] z8 | %59
w: su-|ed,|and though I found no|com- fort in ob-|tain- ing,|||
 d4 A2 |[M:4/4] B4 F2 G2 |[M:3/4] D4 G2 x2 | d4 A2 |[M:4/4] B4 F2 G2 |[M:3/4] A4 D2 x2 | d4 A2 z2 | %66
w: but my|love still re-|main- ing,|but my|love still re-|main- ing,|but my|
[M:4/4][K:treble-8] B4 F2 G2 |[M:3/4] D4 G2 | d4 A2 x2 |[M:4/4] B4 F2 G2 x2 | D8 | !fermata!G8 x4 | %72
w: love still re-|main- ing,|but my|love still re-|main-|ing.|
 x10 | x8 |] %74
w: ||
V:5
 G8 | ^F8- | F4 =F4 | G8 | G8 | G4 G4 | x8 | x8 |[M:4/4] G8 | B8- | B4 B4 | A8- | A8 | x4 d4 | %14
 d8- | d4 d4 | d8 | d8 | d8 | d8 | x8 | x8 | c8 | d8- | d4 d4 | c4 c4 | c8 | =B4 d4 | _e6 d2 | %29
 c2 B2 A2- A2 | G3 A B2 B2 | A2 G4 ^F2 | G4 x2 A2 | B4 G4 | A4 ^F4 | z2 d2 d2 d2 | G3 A B2 GG | %37
 ^F3 G A2 F2 | x2 d2 d2 B2 | A2 G2- G2 ^F2 | G2 d2 d2 d2 | G3 A B2 GG | ^F2 D2 x2 d2 | B3 c d2 BB | %44
 A2 A2 x2 d2 | d2 d2 G2 B2 | A8 |[M:3/2] A4 z2 d4 dd | c2 B2 G3 A BABG |[M:3/2] A2 =f4 ff f4 | %50
 d4 x4 |[M:4/4] d8- | d8 | d8 |[M:4/4] z2 d2 d3 d x4 | c2 B2- B2 A2 x4 |[M:4/4] B4 B2 A2 | G4 ^F4 | %58
 x8 |[M:3/4] x6 | f4 e2 x2 |[M:3/4] d4 c2 x2 |[M:3/4] B2 A4 | =B2 d4 x2 |[M:3/4] c2 B4 A2 | %65
[M:4/4] d2- d2 ^c2 z2 | d2 d4 x2 | e2 x4 |[M:4/4] d4 c2 B2 |[M:4/4] A4 =B2 d4 | c2 B4 A2 | %71
[M:4/4] G2 ^F2 G4 x4 | ^F2 x8 | x8 |] %74
V:6
 x8 | x8 | x8 | x8 | x8 | x8 | d8 | _e8- |[M:4/4] e4 _e4 | d8 | d8 | d4 d4 | x4 A4 | B8- | B4 B4 | %15
 A8- | A8 | x8 | G8 | ^F8- | F4 ^F4 | G8 | G8 |[I:staff +1] ^F4 D4 |[I:staff -1] x4 d4 | _e8- | %26
 e4 _e4 | d4 d4 | c4 G4 | A2 Bc d2 d2 | g6 f2 | _e2 d2 c4 | B2 G2 d4- | d2 cB c4 | d2 d2 d2 d2 | %35
 D3 E ^F2 Dd | B3 c d2 BB | A2 A2 x2 d2 | d2 d2 G3 G | A2 BG A4 | =B4 x2 d2 | d2 d2 G2 B2 | %42
 A2 ^FG A2 F2 | z2 G2 G2 G2 | D3 E ^F2 Dd | B3 c d4 | ^c2 d4 c2 |[M:3/2] d4 z2 f4 ff | f2 d2 g8 | %49
[M:3/2] ^f2 d4 dd c4 | B4 x4 |[M:4/4] AG^FG ABcB | A2 G2 x4 | =B8 |[M:4/4] z2 f2 f3 f x4 | %55
 f2 d2 c4 x4 |[M:4/4] d4 d2 d2 | d4 d4 | z2 d2 c2 A2 |[M:3/4] B4 A2 | d4 c2 x2 |[M:3/4] B4 A2 x2 | %62
[M:3/4] G2- G2 ^F2 | G2 f4 x2 |[M:3/4] e2 d4 c2 |[M:4/4] B2 A4 x2 | A2 f4 x2 | c2 x4 | %68
[M:4/4] B4 A2 G2- |[M:4/4] G2 ^F2 G2 f4 | e2 d4 c2 |[M:4/4] B2 A2 G2 A4 x2 | !fermata!=B8 x2 | %73
 x8 |] %74
V:7
 x8 | x8 | D8 | _E8- | E4 _E4 | D8 | G8 | G4 G4 |[M:4/4] x8 | x8 | G8 | ^F8- | F4 ^F4 | G8 | D8 | %15
 D4 D4 | x4 A4 | B8- | B4 B4 | A8- | A8 | x8 | x8 | z2 A4 ^F2- | %24
[I:staff +1] ^F2 D2[I:staff -1] G4- | G4 G4 | G8 | G4 G4 | c6 B2 | A2 G2- G2 F2 | x4 x4 | %31
 x4 x2 A2 | B4 A4 | G8 | ^F2 A2 A2 A2 | ^F3 G A2 F2 | z2 G2 G2 G2 | D3 E ^F2 D2 | %38
[I:staff +1] B,3 C D4 |[I:staff -1] D2- D2 x2 D2 |[I:staff +1] D2 D2 G,3 A, | %41
 B,2 G,2[I:staff -1] x4 | x2 d2 d2 d2 | G3 A B2 GG | ^F3 G A2 F2 | x2 D2 D2 G2 | G2 F2 E4 | %47
[M:3/2] ^F4 z2 B4 BB | F2 G2[I:staff +1] _E8 |[M:3/2] D2 D4[I:staff -1] BB A4 | G4 x4 | %51
[M:4/4] ^FEDE FGAG | ^F2 G2- [GA]2 [FA]2 | G8 |[M:4/4] z2 F2 F3 F x4 | F2 F2 F4 x4 | %56
[M:4/4] F2 G4 A2 | B4 A4 | z2 D2 E2 ^F2 |[M:3/4] G4 D2 | A4 A2 x2 |[M:3/4] F4 F2 x2 | %62
[M:3/4] D2 D4 | D2 z2 A2 x2 |[M:3/4] A2 F4 A2 |[M:4/4] G2 E4 x2 | ^F2 A4 x2 | A2 x4 | %68
[M:4/4] F4 F2 D2 |[M:4/4] D4 D2 z2 x2 | A2 A2 F4 |[M:4/4] F2 D2 D8 | !fermata!D8 x2 | x8 |] %74
V:8
 z8 | z8 | z8 | z8 | C8 | =B,8- | B,4 !courtesy!=B,4 | C8 |[M:4/4] C8 | G,8- | G,4 G,4 | z8 | z8 | %13
 z8 | G,8 | ^F,8- | F,4 ^F,4 | G,8 | G,8 | D,4 D,4 | z4 D4 | _E8- | E4 _E4 | D8- | D4 =B,4 | C8- | %26
 C8 | G,8 | z8 | z4 D4 | _E6 D2 | C2 B,2 A,4 | G,4 F,4 | _E,8 | D,8 | z8 | z8 | z2 D2 D2 D2 | %38
 G,3 A, B,2 G,G, | ^F,2 G,2 D,4 | G,8 | x2 G,2 G,2 G,2 | D,3 E, ^F,2 D,2 | z8 | z2 D2 D2 D2 | %45
 G,3 A, B,2 G,G, | A,8 |[M:3/2] D,4 z8 | x12 |[M:3/2] x2 B,4 B,B, x4 | F,2 F,2 G,A,B,C | %51
[M:4/4] D4 D2 D,2 | D,8 | G,8 |[M:4/4] z2 B,2 B,3 B, A,2 B,2 | F,4 B,2 G,4 ^F,2 |[M:4/4] G,4 D4 | %57
 z8 | x6 x2 |[M:3/4] z6 | D4 A,2 x2 |[M:3/4] B,4 F,2 G,2 |[M:3/4] D,4 G,2 | D4 A,2 x2 | %64
[M:3/4] B,4 F,2 G,2 |[M:4/4] A,4 D,2 z2 | D4 A,2 x2 | x6 |[M:4/4] B,4 F,2 G,2 |[M:4/4] D,4 G,2 x4 | %70
 D4 A,2 x2 |[M:4/4] B,4 F,2 G,2 x4 | D,8 x2 | !fermata!G,8 |] %74

